brandFactory_export/1.Light/Entradas tickets _1Light.svg

<?xml version="1.0" encoding="UTF-8"?>
<svg width="24px" height="24px" viewBox="0 0 24 24" version="1.1" xmlns="http://www.w3.org/2000/svg" xmlns:xlink="http://www.w3.org/1999/xlink">
    <title>1.Light/Entradas tickets _1Light</title>
    <g id="Symbols" stroke="none" stroke-width="1" fill="none" fill-rule="evenodd">
        <g id="1.Light/Entradas-tickets-_1Light" fill="#5CB615" fill-rule="nonzero">
            <path d="M22.6252247,19.3781513 L22.6252247,2.2789916 C22.6252247,1.5697479 22.0470588,0.994957983 21.3344538,0.994957983 L18.6487395,0.994957983 C18.5411765,0.994957983 18.4504202,1.07563025 18.4403361,1.18319328 C18.2857143,2.20168067 17.4117647,2.9512605 16.3831933,2.95462185 C15.3546218,2.9512605 14.4806723,2.19831933 14.3260504,1.18319328 C14.3159664,1.07563025 14.2252101,0.994957983 14.1176471,0.991596639 L11.4319328,0.991596639 C10.7226891,0.991596639 10.1445378,1.5697479 10.1445378,2.27563025 L10.1445378,19.3747899 C10.1445378,20.0840336 10.7226891,20.6588382 11.4319328,20.6588382 L14.1378151,20.6588382 C14.2420168,20.6554622 14.3294118,20.5815126 14.3462185,20.4806723 C14.5781513,19.3546218 15.6739496,18.6319328 16.8,18.8605042 C17.6168067,19.0285714 18.2521008,19.6638655 18.4201681,20.4806723 C18.4403361,20.5815126 18.5310924,20.6588382 18.6319328,20.6588382 L21.3378151,20.6588382 C22.0504202,20.6621849 22.6285714,20.087395 22.6252247,19.3781513 L22.6252247,19.3781513 Z M10.1142857,22.4907563 L11.6033613,21.6571429 L11.4319328,21.6571429 C10.302521,21.6537815 9.34453782,20.8268908 9.17983193,19.7109244 C9.13277311,19.7243697 9.08907563,19.7478992 9.03865546,19.7478992 C8.8605042,19.7478992 8.69243697,19.6504202 8.60504202,19.4957983 L3.36470588,10.2016807 C3.2302521,9.96302521 3.31092437,9.6605042 3.54957983,9.52605042 C3.54957983,9.52605042 3.55294118,9.52605042 3.55294118,9.52268908 L9.14285714,6.38991597 L9.14285714,3.05882353 L7.15966387,4.17142857 C7.09915966,4.20504202 7.07226891,4.2789916 7.10252101,4.3394958 C7.43865546,5.22016807 7.0789916,6.21512605 6.25882353,6.6789916 C5.43193277,7.13613445 4.39663866,6.92436975 3.81512605,6.18151261 C3.77478992,6.12436975 3.69747899,6.10756303 3.63697479,6.14117647 L1.55294118,7.30756303 C1.30084034,7.4487395 1.11260504,7.68403361 1.03865546,7.96638655 C0.957983193,8.24537815 0.994957983,8.54117647 1.13613445,8.79327731 L8.62184874,22.0705882 C8.76638655,22.3226891 8.99831933,22.5042017 9.28067227,22.5848739 C9.56302521,22.6655462 9.85882353,22.6319328 10.1142857,22.4907563 L10.1142857,22.4907563 Z M4.47731092,10.1445378 L9.14621849,18.4201681 L9.14621849,7.52941176 L4.47731092,10.1445378 Z M21.3378151,0 C22.5983193,0 23.6201681,1.01848739 23.6235294,2.2789916 L23.6235294,19.3781513 C23.6201681,20.6386555 22.5983193,21.6571429 21.3378151,21.6537815 L18.6319328,21.6537815 C18.0537815,21.6537815 17.5563025,21.2436975 17.4453782,20.6756303 C17.3277311,20.0907563 16.7563025,19.7142857 16.1714286,19.8319328 C15.7478992,19.9193277 15.4151261,20.2487395 15.3277311,20.6756303 C15.2168067,21.2436975 14.7193277,21.6537815 14.1411765,21.6537815 L13.1563025,21.6537815 C13.0588235,21.8689076 12.9176471,22.0571429 12.7092437,22.1747899 L10.605042,23.3546218 C10.1210084,23.6268908 9.54957983,23.697479 9.01848739,23.5462185 C8.48067227,23.394958 8.03361345,23.0453782 7.76134454,22.5613445 L0.268907563,9.28403361 C-0.00336134454,8.80336134 -0.0705882353,8.23193277 0.0773109244,7.70084034 C0.225210084,7.1697479 0.581512605,6.71596639 1.06554622,6.44705882 L3.15294118,5.28067227 C3.64369748,5.00504202 4.26554622,5.13277311 4.60840336,5.57983193 C4.78655462,6.04705882 5.31092437,6.28235294 5.77815126,6.10420168 C6.24537815,5.92605042 6.48067227,5.40168067 6.30252101,4.93445378 C6.27226891,4.85042017 6.22857143,4.77310924 6.17478992,4.70252101 C5.9697479,4.17142857 6.17815126,3.58319328 6.67563025,3.30756303 L8.75966387,2.14117647 C8.8907563,2.06722689 9.03529412,2.02352941 9.17983193,1.97983193 C9.33109244,0.850420168 10.292437,0.00336134454 11.4352941,0 L14.1176471,0 C14.7226891,0 15.2268908,0.43697479 15.3142857,1.04201681 C15.3915966,1.56638655 15.8521008,1.96302521 16.3831933,1.96302521 C16.9142857,1.96302521 17.3781513,1.56638655 17.4554622,1.04201681 C17.5428571,0.43697479 18.0470588,0 18.6521008,0 L21.3378151,0 Z M12.6689076,16.3428571 L20.2420168,16.3428571 L20.2420168,5.36806723 L12.6689076,5.36806723 L12.6689076,16.3428571 Z M20.7394958,4.37647059 C21.0151261,4.37647059 21.2369748,4.59831933 21.2369748,4.87394958 L21.2369748,16.8403361 C21.2369748,17.1159664 21.0117647,17.3378151 20.7394958,17.3378151 L12.1680672,17.3378151 C11.892437,17.3378151 11.6705882,17.1159664 11.6705882,16.8403361 L11.6705882,4.87058824 C11.6705882,4.59831933 11.892437,4.37310924 12.1680672,4.37310924 L20.7394958,4.37310924 L20.7394958,4.37647059 Z" id="Entradas-tickets-_1Light"></path>
        </g>
    </g>
</svg>

<svg width="24" height="24" viewBox="0 0 24 24" xmlns="http://www.w3.org/2000/svg"><path d="M22.625 19.378V2.28c0-.71-.578-1.284-1.29-1.284h-2.686a.208.208 0 00-.209.188 2.085 2.085 0 01-2.057 1.772 2.088 2.088 0 01-2.057-1.772.214.214 0 00-.208-.191h-2.686c-.71 0-1.287.578-1.287 1.284v17.099c0 .709.578 1.284 1.287 1.284h2.706a.216.216 0 00.208-.178 2.08 2.08 0 014.074 0c.02.1.111.178.212.178h2.706a1.278 1.278 0 001.287-1.28zm-12.51 3.113l1.488-.834h-.171a2.282 2.282 0 01-2.252-1.946c-.047.013-.09.037-.141.037a.501.501 0 01-.434-.252l-5.24-9.294a.495.495 0 01.185-.676s.003 0 .003-.003l5.59-3.133V3.059L7.16 4.17c-.06.034-.088.108-.057.168a1.908 1.908 0 01-.844 2.34 1.922 1.922 0 01-2.444-.497.137.137 0 00-.178-.04L1.553 7.307c-.252.14-.44.376-.514.658-.081.28-.044.575.097.827l7.486 13.278a1.1 1.1 0 00.659.514c.282.08.578.047.833-.094zM4.476 10.145l4.67 8.275V7.53l-4.67 2.615zM21.337 0a2.285 2.285 0 012.287 2.279v17.1a2.28 2.28 0 01-2.286 2.275h-2.706a1.21 1.21 0 01-1.187-.978 1.08 1.08 0 00-2.117 0 1.21 1.21 0 01-1.187.978h-.985a1.092 1.092 0 01-.447.52l-2.104 1.18a2.078 2.078 0 01-1.587.192 2.077 2.077 0 01-1.257-.985L.27 9.284a2.083 2.083 0 01.797-2.837l2.087-1.166a1.136 1.136 0 011.455.299.907.907 0 101.567-.877 1.12 1.12 0 01.5-1.395L8.76 2.14c.13-.074.275-.117.42-.161A2.282 2.282 0 0111.435 0h2.683c.605 0 1.109.437 1.196 1.042.078.524.538.921 1.07.921a1.09 1.09 0 001.071-.921A1.203 1.203 0 0118.652 0h2.686zM12.67 16.343h7.573V5.368h-7.573v10.975zm8.07-11.967c.276 0 .498.222.498.498V16.84a.499.499 0 01-.498.498h-8.57a.496.496 0 01-.498-.498V4.87c0-.272.221-.497.497-.497h8.571v.003z" fill="#5CB615" fill-rule="nonzero"/></svg>
